X:1
T:Title
%%score { 1 | 2 }
L:1/8
Q:1/4=100
M:4/4
K:C
V:1 treble nm="Grand Piano"
V:2 bass 
V:1
 B2 B2 c2 B2 | B2 A2 A2 G2 | c2 c2 B2 A2 | G2 A2 B4 | d2 d2 c2 B2 | B2 A2 G2 E2 | D2 G2 c2 B2 | %7
w: Maltbie~Babcock * * *|||||||
 B2 A2 G4 |] %8
w: |
V:2
 [G,D]2 [D,D]2 [G,E]2 [D,D]2 | [^F,D]2 [D,C]2 [G,C]2 [D,B,]2 | [^F,E]2 [D,E]2 [E,D]2 [F,C]2 | %3
 [G,B,]2 [D,C]2[K:treble] [G,D]4 | [^G,F]2[K:bass] [E,F]2 [G,E]2 [E,D]2 | %5
 [A,D]2 [E,C]2 [^C,_B,]2 [C,B,]2 | [D,B,]2 [D,B,]2 [D,E]2 [E,D]2 | [^F,D]2 [D,C]2 [G,B,]4 |] %8

